X:9142
T:Lady Edmonton's Reel
M:2/4
L:1/16
K:Bflat
B2ba fdcB|AFcF dFcF|B2ba fdcB|FGBc dBB2|!
B2ba fdcB|AFcF dFcF|B2bg fdcB|FGBc dBB2:|!
|:BFDF EDEF|AFcF dFcF|BFDF Bcde|fgfe dBB2|!
BFDF EDEF|AFcF dFcF|BFDF Bcde|fgfe dBB2:|!
